X: 32268
T: Pickled Toe, The
R: hornpipe
M: 4/4
K: Dmajor
|:D>E|F>DF>A d>fA>d|f>Ae>A e>fA>d|f>A (3AAA d>A (3AAA|B>FA>F (3EFE D>E|
F2 (3FGA d2 A>d|f2 (3def e2 A>d|f>A (3AAA d>A (3FGA|E>^DE>F =D2:|
|:(3bag|(3fgf d>A F>Ad>f|a>Ab>A a>Af>A|e>^de>=d B>A (3cde|f>Ae>A d>ba>g|
f>Ad>A F2 (3def|a>Ab>A a>Af>A|e>^de>=d (3cBA (3FGA|E>^DE>F =D2:|

